src/assets/icons/nav_circle.svg

<svg width="25" height="25" viewBox="0 0 25 25" fill="none" xmlns="http://www.w3.org/2000/svg">
<path fill-rule="evenodd" clip-rule="evenodd" d="M17.3645 13.6772C18.7916 14.646 19.7916 15.9585 19.7916 17.7085V20.8335H22.9166C23.4895 20.8335 23.9583 20.3647 23.9583 19.7918V17.7085C23.9583 15.4377 20.2395 14.0939 17.3645 13.6772Z" fill="#DADADA"/>
<path d="M9.37492 12.5001C11.6761 12.5001 13.5416 10.6346 13.5416 8.33341C13.5416 6.03223 11.6761 4.16675 9.37492 4.16675C7.07373 4.16675 5.20825 6.03223 5.20825 8.33341C5.20825 10.6346 7.07373 12.5001 9.37492 12.5001Z" fill="#DADADA"/>
<path fill-rule="evenodd" clip-rule="evenodd" d="M15.6249 12.5001C17.927 12.5001 19.7916 10.6355 19.7916 8.33341C19.7916 6.03133 17.927 4.16675 15.6249 4.16675C15.1353 4.16675 14.677 4.27091 14.2395 4.41675C15.1041 5.48966 15.6249 6.85425 15.6249 8.33341C15.6249 9.81258 15.1041 11.1772 14.2395 12.2501C14.677 12.3959 15.1353 12.5001 15.6249 12.5001Z" fill="#DADADA"/>
<path fill-rule="evenodd" clip-rule="evenodd" d="M9.37496 13.5417C6.59371 13.5417 1.04163 14.9376 1.04163 17.7085V19.7919C1.04163 20.3648 1.51038 20.8335 2.08329 20.8335H16.6666C17.2395 20.8335 17.7083 20.3648 17.7083 19.7919V17.7085C17.7083 14.9376 12.1562 13.5417 9.37496 13.5417Z" fill="#DADADA"/>
</svg>

<svg width="25" height="25" fill="none" xmlns="http://www.w3.org/2000/svg"><path fill-rule="evenodd" clip-rule="evenodd" d="M17.364 13.677c1.428.969 2.428 2.282 2.428 4.032v3.125h3.125c.572 0 1.041-.47 1.041-1.042v-2.084c0-2.27-3.718-3.614-6.593-4.03Z" fill="#DADADA"/><path d="M9.375 12.5a4.167 4.167 0 1 0 0-8.333 4.167 4.167 0 0 0 0 8.333Z" fill="#DADADA"/><path fill-rule="evenodd" clip-rule="evenodd" d="M15.625 12.5a4.166 4.166 0 0 0 4.167-4.167 4.166 4.166 0 0 0-4.167-4.166c-.49 0-.948.104-1.386.25a6.229 6.229 0 0 1 0 7.833c.438.146.896.25 1.386.25ZM9.375 13.542c-2.781 0-8.333 1.396-8.333 4.167v2.083c0 .573.468 1.041 1.041 1.041h14.584c.572 0 1.041-.468 1.041-1.041v-2.084c0-2.77-5.552-4.166-8.333-4.166Z" fill="#DADADA"/></svg>
